X: 37260
T: Skeldaquoy Point
R: jig
M: 6/8
K: Dmajor
|:G|FGE D2F|ABG F2A|dcd agf|efd c2G|
FGE D2F|ABG F2A|a^ga ABc|d3 d2:|
|:g|faf dfd|AdA F2A|GBg fed|
[1 cec A2g|faf dfd|AdA F2A|GFE ABc|d3d2g:|
[2 cec A2G|FGE D2F|ABG F2A|a^ga ABc|d3d3||

